exported-svg/wind.svg

<svg height="24" viewBox="0 0 24 24" width="24" xmlns="http://www.w3.org/2000/svg"><path d="m10.1417446 4.73102801c-.21075487.23500385-.55347138.23612931-.76547873.0025138-.21200736-.23361551-.21302269-.61350655-.00226781-.84851039.86527744-.96483427 2.20796044-1.16345505 3.27121114-.48390466 1.0632508.67955039 1.5808551 2.0671277 1.261052 3.38058844-.3198013 1.31345395-1.3969328 2.22393834-2.6219871 2.2182848h-9.74299651c-.29893936 0-.54127759-.26865114-.54127759-.60001651 0-.33136538.24233823-.59999009.54127759-.59999009l9.74525851.00000524c.7363995.00341117 1.3826848-.54288495 1.5745664-1.33096036.1918819-.78807644-.1186807-1.62062282-.7566312-2.02835306-.6379504-.40773023-1.4435602-.28855776-1.9627267.29034279zm2.3027683 15.38393979c-.2075423-.235004-.2065425-.6148954.0022332-.8485111s.5462681-.2324903.7538105.0025138c.5112527.578901 1.3045824.6980736 1.9328085.290343s.9340547-1.2402777.7450978-2.0283548c-.1889567-.7880761-.8253906-1.3343727-1.5527926-1.3309563h-12.79264349c-.29438258 0-.53302681-.2686249-.53302681-.5999906 0-.3313656.23864423-.6000118.53302681-.6000118h12.79041609c1.208608-.0056587 2.2693206.9048264 2.5842472 2.2182815.3149283 1.3134619-.1947861 2.7010404-1.2418296 3.3805914s-2.3692597.48093-3.2213476-.4839051zm5.931742-13.00290274c-.2048602.26001682-.5365842.25948232-.7409262-.00119383-.2043421-.26067616-.203922-.68278122.0009382-.94279804 1.0064736-1.27745681 2.5614424-1.53642518 3.7923817-.63159267s1.831454 2.74824257 1.4645831 4.49585518c-.3668709 1.7476127-1.6098091 2.9644268-3.0323139 2.9676643h-18.33700342c-.28934992 0-.52391438-.2984736-.52391438-.6666594 0-.3681859.23456446-.6666594.52391438-.6666594l18.33606602.000001c.9477117-.0021576 1.7763371-.813367 2.0209177-1.97844211.2445806-1.16507509-.1557625-2.39401513-.9763887-2.99723681-.8206262-.60322167-1.8572721-.43057609-2.5282545.42106178z"/></svg>

<?xml version="1.0" encoding="UTF-8"?>
<svg width="24px" height="24px" viewBox="0 0 24 24" version="1.1" xmlns="http://www.w3.org/2000/svg" xmlns:xlink="http://www.w3.org/1999/xlink">
    <!-- Generator: Sketch 55.2 (78181) - https://sketchapp.com -->
    <title>wind</title>
    <desc>Created with Sketch.</desc>
    <g id="wind" stroke="none" stroke-width="1" fill="none" fill-rule="evenodd">
        <path d="M10.1417446,4.73102801 C9.93098973,4.96603186 9.58827322,4.96715732 9.37626587,4.73354181 C9.16425851,4.4999263 9.16324318,4.12003526 9.37399806,3.88503142 C10.2392755,2.92019715 11.5819585,2.72157637 12.6452092,3.40112676 C13.70846,4.08067715 14.2260643,5.46825446 13.9062612,6.7817152 C13.5864599,8.09516915 12.5093284,9.00565354 11.2842741,9 L1.54127759,9 C1.24233823,9 1,8.73134886 1,8.39998349 C1,8.06861811 1.24233823,7.7999934 1.54127759,7.7999934 L11.2865361,7.79999864 C12.0229356,7.80340981 12.6692209,7.25711369 12.8611025,6.46903828 C13.0529844,5.68096184 12.7424218,4.84841546 12.1044713,4.44068522 C11.4665209,4.03295499 10.6609111,4.15212746 10.1417446,4.73102801 Z M12.4445129,20.1149678 C12.2369706,19.8799638 12.2379704,19.5000724 12.4467461,19.2664567 C12.6555218,19.032841 12.9930142,19.0339664 13.2005566,19.2689705 C13.7118093,19.8478715 14.505139,19.9670441 15.1333651,19.5593135 C15.7615912,19.1515829 16.0674198,18.3190358 15.8784629,17.5309587 C15.6895062,16.7428826 15.0530723,16.196586 14.3256703,16.2000024 L1.53302681,16.2000024 C1.23864423,16.2000024 1,15.9313775 1,15.6000118 C1,15.2686462 1.23864423,15 1.53302681,15 L14.3234429,15 C15.5320509,14.9943413 16.5927635,15.9048264 16.9076901,17.2182815 C17.2226184,18.5317434 16.712904,19.9193219 15.6658605,20.5988729 C14.618817,21.2784239 13.2966008,21.0798029 12.4445129,20.1149678 Z M18.3762549,7.11206506 C18.1713947,7.37208188 17.8396707,7.37154738 17.6353287,7.11087123 C17.4309866,6.85019507 17.4314067,6.42809001 17.6362669,6.16807319 C18.6427405,4.89061638 20.1977093,4.63164801 21.4286486,5.53648052 C22.6595879,6.44131303 23.2601026,8.28472309 22.8932317,10.0323357 C22.5263608,11.7799484 21.2834226,12.9967625 19.8609178,13 L1.52391438,13 C1.23456446,13 1,12.7015264 1,12.3333406 C1,11.9651547 1.23456446,11.6666812 1.52391438,11.6666812 L19.8599804,11.6666822 C20.8076921,11.6645246 21.6363175,10.8533152 21.8808981,9.68824009 C22.1254787,8.523165 21.7251356,7.29422496 20.9045094,6.69100328 C20.0838832,6.08778161 19.0472373,6.26042719 18.3762549,7.11206506 Z" id="Shape" fill="#000000" fill-rule="nonzero"></path>
    </g>
</svg>
